icons/1_Primary/Steam.svg

<svg xmlns="http://www.w3.org/2000/svg" width="1024" height="1024" fill="none">
   <g clip-path="url(#a)">
      <path fill="#56595B" d="M512 1024c282.77 0 512-229.23 512-512S794.77 0 512 0 0 229.23 0 512s229.23 512 512 512Z"/>
      <path fill="#fff" d="M511.55 256c-134.42 0-244.64 103.68-255.07 235.45l137.21 56.7a72.26 72.26 0 0 1 40.79-12.59c1.34 0 2.67.09 4 .13l61-88.36v-1.26A96.51 96.51 0 1 1 596 542.68h-2.24l-87 62.1c0 1.11.09 2.24.09 3.39a72.385 72.385 0 0 1-65.22 72.136 72.387 72.387 0 0 1-78.16-57.866l-98.24-40.68C295.73 689.21 394.37 768 511.55 768c141.37 0 256-114.62 256-256s-114.65-256-256-256Zm-94.7 388.47-31.42-13a54.274 54.274 0 0 0 79.728 21.294A54.27 54.27 0 0 0 484.54 628.8a54.297 54.297 0 0 0-38.241-73.928 54.3 54.3 0 0 0-31.089 2.208l32.49 13.44a40.08 40.08 0 0 1 21.585 52.415 40.08 40.08 0 0 1-52.415 21.585l-.02-.05ZM660.37 446a64.323 64.323 0 0 0-39.705-59.424 64.322 64.322 0 0 0-87.699 46.876 64.32 64.32 0 0 0 63.084 76.868A64.402 64.402 0 0 0 660.37 446Zm-112.49-.11a48.333 48.333 0 0 1 57.757-47.412 48.333 48.333 0 0 1 35.223 65.902 48.328 48.328 0 0 1-44.66 29.83 48.31 48.31 0 0 1-48.32-48.3v-.02Z"/>
   </g>
   <defs>
      <clipPath id="a">
         <path fill="#fff" d="M0 0h1024v1024H0z"/>
      </clipPath>
   </defs>
</svg>

<svg width="1024" height="1024" viewBox="0 0 1024 1024" fill="none" xmlns="http://www.w3.org/2000/svg">
<g clip-path="url(#clip0_2_3561)">
<path d="M512 1024C794.77 1024 1024 794.77 1024 512C1024 229.23 794.77 0 512 0C229.23 0 0 229.23 0 512C0 794.77 229.23 1024 512 1024Z" fill="#56595B"/>
<path d="M511.55 256C377.13 256 266.91 359.68 256.48 491.45L393.69 548.15C405.709 539.941 419.926 535.553 434.48 535.56C435.82 535.56 437.15 535.65 438.48 535.69L499.48 447.33V446.07C499.5 426.987 505.177 408.338 515.793 392.48C526.409 376.623 541.489 364.268 559.125 356.979C576.761 349.689 596.162 347.792 614.876 351.526C633.59 355.26 650.777 364.459 664.265 377.959C677.753 391.459 686.935 408.655 690.652 427.372C694.369 446.09 692.453 465.49 685.147 483.119C677.841 500.748 665.473 515.816 649.605 526.417C633.738 537.019 615.084 542.678 596 542.68H593.76L506.76 604.78C506.76 605.89 506.85 607.02 506.85 608.17C506.876 626.145 500.213 643.487 488.157 656.821C476.102 670.155 459.517 678.526 441.63 680.306C423.743 682.087 405.833 677.148 391.386 666.452C376.939 655.756 366.988 640.068 363.47 622.44L265.23 581.76C295.73 689.21 394.37 768 511.55 768C652.92 768 767.55 653.38 767.55 512C767.55 370.62 652.9 256 511.55 256ZM416.85 644.47L385.43 631.47C389.956 640.933 397.126 648.882 406.075 654.355C415.024 659.828 425.366 662.591 435.852 662.308C446.338 662.026 456.517 658.71 465.158 652.764C473.799 646.817 480.531 638.493 484.54 628.8C488.633 619.009 489.766 608.233 487.801 597.804C485.835 587.375 480.857 577.751 473.481 570.121C466.105 562.491 456.655 557.19 446.299 554.872C435.943 552.554 425.135 553.322 415.21 557.08L447.7 570.52C457.513 574.608 465.3 582.427 469.348 592.257C473.396 602.087 473.374 613.122 469.285 622.935C465.197 632.748 457.378 640.535 447.548 644.583C437.719 648.631 426.683 648.608 416.87 644.52L416.85 644.47ZM660.37 446C660.37 433.279 656.598 420.843 649.531 410.266C642.463 399.688 632.418 391.444 620.665 386.576C608.912 381.708 595.979 380.434 583.502 382.916C571.025 385.398 559.565 391.524 550.569 400.519C541.574 409.514 535.448 420.975 532.966 433.452C530.485 445.929 531.758 458.861 536.627 470.614C541.495 482.367 549.739 492.413 560.316 499.48C570.894 506.548 583.329 510.32 596.05 510.32C613.103 510.299 629.45 503.515 641.508 491.458C653.566 479.4 660.349 463.052 660.37 446ZM547.88 445.89C547.878 436.33 550.712 426.985 556.021 419.036C561.331 411.086 568.879 404.89 577.711 401.231C586.542 397.572 596.261 396.614 605.637 398.478C615.013 400.343 623.625 404.946 630.385 411.706C637.145 418.465 641.748 427.078 643.612 436.454C645.477 445.83 644.519 455.548 640.86 464.38C637.2 473.211 631.004 480.759 623.055 486.069C615.106 491.379 605.76 494.212 596.2 494.21C589.856 494.211 583.574 492.963 577.712 490.536C571.85 488.11 566.524 484.552 562.037 480.067C557.55 475.582 553.991 470.257 551.562 464.397C549.133 458.536 547.882 452.254 547.88 445.91V445.89Z" fill="white"/>
</g>
<defs>
<clipPath id="clip0_2_3561">
<rect width="1024" height="1024" fill="white"/>
</clipPath>
</defs>
</svg>
